!!!!SEGMENT: pl-wtm--a-43-196-99--001-009_kazuro-stanislaw--25-piesni-dzieciecych-z-fortepianem-op-49-spij-haniu.krn
!!!cenid: 19xx:205
!!!COM: Kazuro, Stanisław
!!!COM-rismID: pe50047136
!!!CDT: 1881/08/02-1961/11/30
!!!CNT: Polish
!!!GTL: 25 Pieśni dziecięcych z fortepianem, op. 49
!!!OTL: Śpij, Haniu
!!!OMV: 009
!!!PDT: 1950
!!!AGN:
!!!YEC: Copyright 2022 Narodowy Instytut Fryderyka Chopina (https://polishscores.org)
!!!YEM: License CC-BY-4.0 (https://creativecommons.org/licenses/by/4.0)
!!!SMS-siglum: PL-Wtm
!!!SMS-shelfmark: A-43.196/99
!!!SMS-variant:
!!!SMS-altvar:
!!!SMS-shelfwork: 001-009 G
!!!NIFC-rismSourceID: 1001164821
!!!NIFC-rismChildID: 1001164821
!!!NIFC-islandoraID: pl-wtm:43198
!!!URL-pdf-islandora: https://repozytorium.nifc.pl/islandora/object/pl-wtm:43198/datastream/PDF/view
!!!URL-scan: https://polish.musicsources.pl/pl/lokalizacje/galeria/druki-muzyczne/22428/11 @EN{Scan on Polish Music Sources Website} @PL{Skany w portalu Dziedzictwo Muzyki Polskiej w otwartym dostępie}
!!!IIIF:
!!!ONB-nifc:
!!!AIN: 1 canto 1 piano
!!!key: C
**kern	**kern	**dynam	**kern	**text	**text	**dynam
*part2	*part2	*part2	*part1	*part1	*part1	*part1
*staff3	*staff2	*staff2/3	*staff1	*staff1	*staff1	*
*IGacmp	*IGacmp	*	*	*	*	*
*ICklav	*ICklav	*	*ICvox	*	*	*
*Ipiano	*Ipiano	*	*Icanto	*	*	*
*I"	*I"	*	*I"	*	*	*
*I'	*I'	*	*I'	*	*	*
*clefF4	*clefG2	*	*clefG2	*	*	*
*k[]	*k[]	*	*k[]	*	*	*
*C:	*C:	*	*C:	*	*	*
*M3/4	*M3/4	*	*M3/4	*	*	*
*>[A,A]	*>[A,A]	*>[A,A]	*>[A,A]	*>[A,A]	*>[A,A]	*>[A,A]
=1	=1	=1	=1	=1	=1	=1
*	*^	*	*	*	*	*
*>A	*>A	*>A	*>A	*>A	*>A	*>A	*>A
!!LO:TX:t=P:problem:oddech jako v
!!LO:TX:a:b:B:t=Andantino.
[2.c [2.E [2.AA\	(4ee/	4ee\	p	2.r	.	.	.
.	4ccc/	4ccc\	.	.	.	.	.
.	4bb/	4bb\	.	.	.	.	.
=2	=2	=2	=2	=2	=2	=2	=2
2.c] 2.E] 2.AA\]	4aa/	4aa\	.	2.r	.	.	.
.	4gg/	4gg\	.	.	.	.	.
.	4ff/)	4ff\	.	.	.	.	.
=3	=3	=3	=3	=3	=3	=3	=3
(4c#X\	4ee 4b^/	4a 4e\	.	2.r	.	.	.
4B\	4dd 4a^/	4g 4d\	.	.	.	.	.
4A\)	4ccn 4g^/	4f 4cn\	.	.	.	.	.
=4	=4	=4	=4	=4	=4	=4	=4
!	!	!	!	!	!	!	!LO:DY:b
2.G#X: 2.BB: 2.EE:/	2.b 2.B^/	(>2f\	.	2.r	.	.	p
.	.	[4e\)	.	.	.	.	.
*	*v	*v	*	*	*	*	*
=5	=5	=5	=5	=5	=5	=5
*	*	*	*	*v:1	*v:2	*
!	!	!	!	!	!	!LO:DY:a
[2.c [2.E [2.AA\	4e/]	mp	4e/	Śpij,	Po-	mp
.	(4ee\	.	4cc^\	Ha-	-snę-	.
.	4dd\	.	4b\	-niu,	-ły	.
=6	=6	=6	=6	=6	=6	=6
2.c] 2.E] 2.AA\]	4cc\	.	4a/	sło-	ku-	.
.	4b\	.	4g,/	-dko,	-rki	.
.	4g/	.	4e/	śpij	czu-	.
!!LO:LB:g=original
=7	=7	=7	=7	=7	=7	=7
*^	*	*	*	*	*	*
*	*	*	*	*	*v:1	*v:2	*
2.B/	2.G\	4a/	.	2.a/	sło-	-ba-	.
.	.	4f/	.	.	.	.	.
.	.	4c#X/	.	.	.	.	.
=8	=8	=8	=8	=8	=8	=8	=8
*	*	*^	*	*	*	*	*
2.G#X/	4rGG	2.e/)	[2.d\	.	2e/	-dko!	-te,	.
.	4E\	.	.	.	.	.	.	.
!	!LO:ACC:paren	!	!	!	!	!	!	!
.	4BB-X\	.	.	.	4r	.	.	.
=9	=9	=9	=9	=9	=9	=9	=9	=9
2A: 2AA:/	2DD:\	(4f/	4d\]	.	4f/	Niech	Kot	.
.	.	4a/	4e\	.	4e/	o-	ty-	.
4c/	4A\	4dd/	4f\	.	4d/	-mi-	-lko	.
=10	=10	=10	=10	=10	=10	=10	=10	=10
2.B/	2.G\	4gg/)	4g\	.	4g/	-ja-	wy-	.
.	.	(4ff#X/	4a\	.	4d,/	-ją	-szedł	.
.	.	4ffn/	4b\	.	4f/	twój	na	.
*v	*v	*	*	*	*	*	*	*
*	*v	*v	*	*	*	*	*
=11	=11	=11	=11	=11	=11	=11
(4A\	[2.ee 2.dd [2.e/)	.	[2.e/	próg.	łów…	.
4G#X\	.	.	.	.	.	.
4F\	.	.	.	.	.	.
=12	=12	=12	=12	=12	=12	=12
4D\	2.ee] 2.b 2.e/_	.	2e/]	.	.	.
4BB/	.	.	.	.	.	.
4EE/)	.	.	4r	.	.	.
!!LO:LB:g=original
=13	=13	=13	=13	=13	=13	=13
*^	*	*	*	*	*	*
*	*	*	*	*	*v:1	*v:2	*
!	!	!	!	!	!	!	!LO:DY:b:rj
[2.c [2.E/	[2.AA\	4e/]	.	4e/	Złe	Nie-	mf
.	.	(4ee\	.	4cc\	smu-	-grze-	.
.	.	4dd\	.	4b\	-tki	-czny	.
=14	=14	=14	=14	=14	=14	=14	=14
2.c] 2.E/]	2.AA\]	4cc\	.	4a/	la-	mru-	.
.	.	4b\	.	4g,/	-lek	-czek	.
.	.	4a/	.	4e/	stłu-	się	.
=15	=15	=15	=15	=15	=15	=15	=15
2.B 2.D/	2.GG\	4f/	.	2.a/	-czo-	skra-	.
.	.	4d#X/	.	.	.	.	.
.	.	4B/	.	.	.	.	.
=16	=16	=16	=16	=16	=16	=16	=16
*	*^	*	*	*	*	*	*
*	*	*cue	*	*	*	*	*	*
!LO:TX:t=P:problem:strzałka do prawej ręki	!	!	!	!	!	!	!	!
2.C/	2.FF\	4A/	4e/	.	4e/	-nych,	-da,	.
*	*	*Xcue	*	*	*	*	*	*
.	.	2ryy	4A/	.	4ryy	.	.	.
.	.	.	4G#X/	.	4r	.	.	.
*	*v	*v	*	*	*	*	*	*
=17	=17	=17	=17	=17	=17	=17	=17
*	*	*^	*	*	*	*	*
2.BB/	2.EE\	4f 4d/)	4A\	.	4f/	Pa-	A	.
.	.	(4a 4e/	4d\	.	4e/	-ja-	sło-	.
.	.	4dd/	4b 4f\	.	4d/	-ców	-wik	.
=18	=18	=18	=18	=18	=18	=18	=18	=18
2.AA/	2.DD\	4ee/	4b 4g\	.	4g/	bez	śpie-	.
.	.	4dd/	4a 4f\	.	4d,/	rąk	-wa	.
.	.	4a/)	4g 4e\	.	4e/	i	wśród	.
*v	*v	*	*	*	*	*	*	*
*	*v	*v	*	*	*	*	*
!!LO:PB:g=original
=19	=19	=19	=19	=19	=19	=19
*	*	*	*	*v:1	*v:2	*
(<4CC/	[2.cc [2.g [2.e [2.c/	.	[2.c/	nóg.	bzów.	.
4GG/	.	.	.	.	.	.
4E\	.	.	.	.	.	.
=20	=20	=20	=20	=20	=20	=20
4GG/	2cc] 2g] 2e] 2c/]	.	2c/]	.	.	.
4FF#X/	.	.	.	.	.	.
!	!	!	!	!	!	!LO:DY:b:rj
4AA-X/)	4r	.	4r	.	.	pp
=21	=21	=21	=21	=21	=21	=21
!	!	!	!	!	!	!LO:DY:a
(<4GG/	(4dd\	mf	4d/	Noc	Lecz	mf
4D\	4ee\	.	4e/	wo-	ty	.
4B\	4ff#X\	.	4d/	-nna	śpij,	.
=22	=22	=22	=22	=22	=22	=22
4d\	4gg\	.	4g/	sto-	Ha-	.
4g>\	4aa/	.	4e,/	-i	-niu,	.
4dd>\)	4bb/	.	4d/	na	spo-	.
=23	=23	=23	=23	=23	=23	=23
*	*^	*	*	*	*	*
(<4AA/	2.ccc/	2.ee\	.	2.c/	stra-	-koj-	.
4E\	.	.	.	.	.	.	.
[4c\	.	.	.	.	.	.	.
=24	=24	=24	=24	=24	=24	=24	=24
4c\]	2.ee/)	2.dd 2.g#X\	.	2d/	-ży	-nie,	.
4B\	.	.	.	.	.	.	.
4E\)	.	.	.	4r	.	.	.
!!LO:LB:g=original
=25	=25	=25	=25	=25	=25	=25	=25
*	*	*	*	*	*v:1	*v:2	*
!	!	!	!	!	!	!	!LO:HP:a
(<4AA/	(4ee/	2.cc\	.	4e/	U	Twój	<
4E\	4ccc/	.	.	4g/	two-	mru-	.
4c\	4aa/	.	.	4cc\	-ich	-czek	.
=26	=26	=26	=26	=26	=26	=26	=26
*^	*	*	*	*	*	*	*
4d#X/	4B\)	4bb/	4ff#X 4b\	.	4b\	o-	nie-	.
4e#/	4c#X\	4aa/	4ffn 4a\	.	4a,/	-kien	-stra-	.
4g/	4dn\	4gg/	4ff 4b\	.	4g/	i	-szny	[[
=27	=27	=27	=27	=27	=27	=27	=27	=27
4en/	(4cn\	4gg 4cc/)	4g\	.	[2.cc\	drzwi	wróg	.
[2c/	4A\	2ee~ 2f/	4cc\	.	.	.	.	.
.	4A-X\	.	4b\	.	.	.	.	.
=28	=28	=28	=28	=28	=28	=28	=28	=28
2.c/]	4G\	2.cc/	2.e\	.	2cc\]	.	.	.
.	4D-X\	.	.	.	.	.	.	.
!	!	!	!	!	!	!	!	!LO:DY:b
.	4C\	.	.	.	4r	.	.	pp
*v	*v	*	*	*	*	*	*	*
=29	=29	=29	=29	=29	=29	=29	=29
4GG/)	4dd#X 4b/	2.f\	.	4b\	Po-	Nad	.
4Dn\	4ee 4cc/	.	.	4cc\	-snę-	śpie-	.
4G\	4cc 4a/	.	.	4a/	-ły	-wa-	.
=30	=30	=30	=30	=30	=30	=30	=30
4FF/	4b 4g/	2d#X\	.	4g/	ku-	-ją-	.
4C/	2cc 2a/	.	.	4a,/	-rki	-cym	.
4G\	.	4e\	.	4e/	czu-	sło-	.
*	*v	*v	*	*	*	*	*
!!LO:LB:g=original
=31	=31	=31	=31	=31	=31	=31
*	*	*	*	*v:1	*v:2	*
2.F\	4g 4c 4A/	.	2.g/	-ba-	-wi-	.
.	4g 4c 4A/	.	.	.	.	.
.	4g 4c 4A/	.	.	.	.	.
=32	=32	=32	=32	=32	=32	=32
*	*^	*	*	*	*	*
[2.G\	4f/	4e-X 4B\	.	2f/	-te,	-kiem	.
.	4f/	4e- 4B\	.	.	.	.	.
.	4f/	4e- 4B\	.	4r	.	.	.
*	*v	*v	*	*	*	*	*
=33	=33	=33	=33	=33	=33	=33
*^	*	*	*	*	*	*
(4G/]	[2.C\	(>4en/	.	4e/	I	Noc	.
4G#X/	.	4gn/	.	4g/	bo-	czu-	.
4A/	.	4f/	.	4f/	-ciek	-wa	.
=34	=34	=34	=34	=34	=34	=34	=34
4A#X/)	2.C\_	4e/	.	4e/	da-	wo-	.
2B/	.	4d/	.	4d,/	-wno	-nna	.
.	.	4e/	.	4e/	już	i	.
=35	=35	=35	=35	=35	=35	=35	=35
*	*	*^	*	*	*	*	*
2C/	4C\]	[2.c/)	4c\	.	[2.c/	śpi._	Bóg._	.
.	4EE\	.	4A-X</	.	.	.	.	.
4ryy	4AA-X\	.	4E-X</	.	.	.	.	.
*	*	*v	*v	*	*	*	*	*
=36	=36	=36	=36	=36	=36	=36	=36
2.F/	4CC#X\	2.c/_>	.	2c/]	.	.	.
.	4DD\	.	.	.	.	.	.
.	4BBB-X\	.	.	4r	.	.	.
=37	=37	=37	=37	=37	=37	=37	=37
2G 2E/	2C 2CC\	2c/]	.	2.r	.	.	.
4r	4ryy	4r	.	.	.	.	.
*v	*v	*	*	*	*	*	*
=:|!	=:|!	=:|!	=:|!	=:|!	=:|!	=:|!
*-	*-	*-	*-	*-	*-	*-
!!!system-decoration: s1{(s2,s3)}
!!!RDF**kern: > = above
!!!RDF**kern: < = below
!!!RDF**kern: N = linked
!!!ENC: Andrzej Gręziak
!!!EED: Katarzyna Serwa
!!!END: 2025-03-27
!!!EEV: 2025-04-01
